dist/svgs/devui-icons/op/fold.svg

<svg xmlns="http://www.w3.org/2000/svg" viewBox="0 0 16 16"><path d="M1 7h14v2H1V7zm6-4V1h2v2h2L8 6 5 3h2zm0 10H5l3-3 3 3H9v2H7v-2z"/></svg>

<?xml version="1.0" encoding="UTF-8"?>
<svg width="16px" height="16px" viewBox="0 0 16 16" version="1.1" xmlns="http://www.w3.org/2000/svg" xmlns:xlink="http://www.w3.org/1999/xlink">
    <title>操作/折叠</title>
    <desc>Created with Sketch.</desc>
    <g id="操作/折叠" stroke="none" stroke-width="1" fill="none" fill-rule="evenodd">
        <g>
            <path d="M1,7 L15,7 L15,9 L1,9 L1,7 Z M7,3 L7,1 L9,1 L9,3 L11,3 L8,6 L5,3 L7,3 Z M7,13 L5,13 L8,10 L11,13 L9,13 L9,15 L7,15 L7,13 Z" id="形状" fill="#293040" fill-rule="nonzero"></path>
        </g>
    </g>
</svg>
